X: 1104
T: Come In from the Rain
R:double jig
N:"collected by J.O'Neill"
B:O'Neill's 1104
Z:Transcribed by henrik.norbeck@mailbox.swipnet.se
M:6/8
L:1/8
K:Em
A|B2E EFE|d3 A2G|F2D DED|F2G A2c|
B2E EFE|d3 e2f|g2e f2^d|e3 e2:|
f|gfe b2e|gfe b2e|f2d A2g|f2g a2f|
gfe b2e|gfe b2e|f2d Bc^d|e3 e2:|


